assets/box minus.svg

<?xml version="1.0" encoding="UTF-8"?>
<svg width="18px" height="18px" viewBox="0 0 18 18" version="1.1" xmlns="http://www.w3.org/2000/svg" xmlns:xlink="http://www.w3.org/1999/xlink">
    <!-- Generator: Sketch 47.1 (45422) - http://www.bohemiancoding.com/sketch -->
    <title>Mask</title>
    <desc>Created with Sketch.</desc>
    <defs>
        <path d="M3,2 C2.44771525,2 2,2.44771525 2,3 L2,15 C2,15.5522847 2.44771525,16 3,16 L15,16 C15.5522847,16 16,15.5522847 16,15 L16,3 C16,2.44771525 15.5522847,2 15,2 L3,2 Z M3,0 L15,0 C16.6568542,0 18,1.34314575 18,3 L18,15 C18,16.6568542 16.6568542,18 15,18 L3,18 C1.34314575,18 0,16.6568542 0,15 L0,3 C0,1.34314575 1.34314575,0 3,0 Z M4,8 L4,10 L14,10 L14,8 L4,8 Z" id="path-1"></path>
    </defs>
    <g id="Icons" stroke="none" stroke-width="1" fill="none" fill-rule="evenodd">
        <g id="select-/-box-minus" transform="translate(-3.000000, -3.000000)">
            <g id="box-plus">
                <g id="Icon-🎨" transform="translate(3.000000, 3.000000)">
                    <mask id="mask-2" fill="white">
                        <use xlink:href="#path-1"></use>
                    </mask>
                    <use id="Mask" fill="#001833" fill-rule="nonzero" xlink:href="#path-1"></use>
                </g>
            </g>
        </g>
    </g>
</svg>

<?xml version="1.0" encoding="utf-8"?>
<!-- Generator: Adobe Illustrator 21.1.0, SVG Export Plug-In . SVG Version: 6.00 Build 0)  -->
<svg version="1.1" id="Layer_1" xmlns="http://www.w3.org/2000/svg" xmlns:xlink="http://www.w3.org/1999/xlink" x="0px" y="0px"
	 viewBox="0 0 18 18" style="enable-background:new 0 0 18 18;" xml:space="preserve">
<style type="text/css">
	.st0{fill:#001833;}
</style>
<path id="path-1_1_" class="st0" d="M3,2C2.4,2,2,2.4,2,3v12c0,0.6,0.4,1,1,1h12c0.6,0,1-0.4,1-1V3c0-0.6-0.4-1-1-1H3z M3,0h12
	c1.7,0,3,1.3,3,3v12c0,1.7-1.3,3-3,3H3c-1.7,0-3-1.3-3-3V3C0,1.3,1.3,0,3,0z M4,8v2h10V8H4z"/>
</svg>
